svgs/feza.svg

<svg xmlns="http://www.w3.org/2000/svg" viewBox="0 0 192 192"><path d="M26.072 145.119c.89-.484 8.903-.88 17.807-.88 8.903 0 16.916.396 17.806.88.891.485-7.122.881-17.806.881-10.684 0-18.698-.396-17.807-.881Zm68.374-2.033c-.211-.578.472-9.884 1.517-20.68 1.044-10.797 2.095-21.962 2.335-24.812l.436-5.182-6.06-.317c-4.871-.256-6.059-.642-6.059-1.968 0-1.289 1.336-1.837 6.118-2.509 3.365-.473 6.224-1.04 6.353-1.26.129-.219.665-5.029 1.19-10.688.525-5.659 1.401-12.617 1.945-15.462 1.673-8.742 6.573-14.176 11.221-12.442 3.65 1.362 4.342 6.921.708 5.687-3.785-1.286-5.821 4.586-7.425 21.413-.554 5.821-1.008 10.923-1.008 11.336 0 .414 1.238.6 2.752.414 2.53-.311 2.882-.745 4.371-5.398 2.577-8.056 5.063-12.942 7.781-15.298 2.796-2.422 6.85-2.845 9.276-.968 2.931 2.269 3.915 10.231 2.029 16.425-1.225 4.025-6.407 8.648-10.652 9.502-1.716.345-3.44.963-3.832 1.374-.933.98-1.657 13.033-1.09 18.165.513 4.647 2.388 8.305 4.256 8.305.711 0 2.423-1.734 3.804-3.853 2.213-3.396 2.609-3.651 3.343-2.151.703 1.441.448 2.369-1.66 6.036-4.342 7.553-8.882 8.298-12.48 2.049-2.452-4.261-3.532-10.647-3.468-20.503l.052-7.974h-5.013l-.726 7.424-2.5 25.571-1.773 18.148-2.68.333c-1.473.183-2.851-.139-3.061-.717Zm28.172-59.708c4.438-2.519 7.069-9.288 4.985-12.828-1.881-3.195-5.507.374-7.659 7.539-2.066 6.88-1.634 7.735 2.674 5.289Zm-85.376 54.366c-1.881-.615-1.848-1.797.101-3.568 2.453-2.23 3.591-7.102 5.793-24.802l2.052-16.497 13.196-.298 13.197-.299-.345 6.348c-.896 16.493-8.457 31.88-18.487 37.619-3.778 2.162-11.266 2.885-15.507 1.497Zm-12.429-11.991c-2.628-4.133-4.546-8.397-5.812-12.923-1.823-6.514-3.491-17.959-2.868-19.672.438-1.203 24.684-1.027 25.124.182.464 1.277-3.195 29.96-4.252 33.331-1.215 3.873-2.604 5.177-5.554 5.215-2.412.031-3.153-.654-6.638-6.133Zm126.828-4.746c-1.647-2.798-1.893-4.024-1.893-9.457 0-11.728 2.827-17.317 10.834-21.424 5.725-2.935 7.685-5.423 8.67-11.006.638-3.621.589-4.726-.316-7.073-.591-1.53-1.757-3.073-2.592-3.429-1.464-.624-4.708 1.287-7.027 4.14-1.561 1.92-3.067-.498-2.046-3.283 1.49-4.06 5.543-6.807 10.072-6.826 3.701-.015 4.604.386 6.292 2.798 3.075 4.396 3.115 7.879.333 29.322-1.357 10.453-2.512 20.985-2.567 23.404-.099 4.275-.172 4.41-2.596 4.755-1.771.252-2.725-.183-3.293-1.502-.743-1.726-.956-1.693-3.016.469-1.514 1.59-3.285 2.327-5.589 2.327-2.865 0-3.659-.484-5.266-3.215Zm11.271-6.621c2.279-4.285 3.208-8.27 4.052-17.387l.433-4.676-3.806 2.843c-4.575 3.417-6.518 6.29-7.052 10.425-1.644 12.709 1.779 17.432 6.373 8.795Zm-32.805 8.003c-.942-1.598-.289-4.505 3.035-13.515 8.097-21.949 13.369-36.791 13.369-37.638 0-.498-2.623-.906-5.828-.906-5.802 0-5.828-.012-5.828-2.781v-2.78l8.904.306c8.638.297 8.909.378 9.107 2.745.131 1.569-1.849 8.049-5.546 18.148-8.525 23.288-10.522 29.062-10.522 30.424 0 .817 1.96 1.231 5.827 1.231 5.785 0 5.828.021 5.828 2.75v2.75h-8.957c-4.927 0-9.152-.33-9.389-.734ZM16.614 83.253c.628-6.972 3.849-17.322 7.176-23.053 5.956-10.261 12.724-14.624 21.478-13.843 2.966.264 5.571.784 5.789 1.155.219.371-.598 2.366-1.816 4.433-1.772 3.01-2.509 5.711-3.7 13.547a5949.432 5949.432 0 0 1-2.469 16.111l-.983 6.324H16.194Zm29.523 3.85c-.004-.454.922-7.247 2.059-15.097 2.453-16.93 3.426-19.274 8.004-19.274 2.744 0 3.302.504 6.752 6.094 4.083 6.613 7.44 16.66 8.174 24.456l.438 4.645h-12.71c-6.99 0-12.713-.371-12.717-.824Z"/></svg>

<svg
    xmlns="http://www.w3.org/2000/svg"
    viewBox="0 0 192 192"
    id="vector">
    <g id="group">
        <path
            id="path_6"
            d="M 26.072 145.119 C 26.962 144.635 34.975 144.239 43.879 144.239 C 52.782 144.239 60.795 144.635 61.685 145.119 C 62.576 145.604 54.563 146 43.879 146 C 33.195 146 25.181 145.604 26.072 145.119 Z M 94.446 143.086 C 94.235 142.508 94.918 133.202 95.963 122.406 C 97.007 111.609 98.058 100.444 98.298 97.594 L 98.734 92.412 L 92.674 92.095 C 87.803 91.839 86.615 91.453 86.615 90.127 C 86.615 88.838 87.951 88.29 92.733 87.618 C 96.098 87.145 98.957 86.578 99.086 86.358 C 99.215 86.139 99.751 81.329 100.276 75.67 C 100.801 70.011 101.677 63.053 102.221 60.208 C 103.894 51.466 108.794 46.032 113.442 47.766 C 117.092 49.128 117.784 54.687 114.15 53.453 C 110.365 52.167 108.329 58.039 106.725 74.866 C 106.171 80.687 105.717 85.789 105.717 86.202 C 105.717 86.616 106.955 86.802 108.469 86.616 C 110.999 86.305 111.351 85.871 112.84 81.218 C 115.417 73.162 117.903 68.276 120.621 65.92 C 123.417 63.498 127.471 63.075 129.897 64.952 C 132.828 67.221 133.812 75.183 131.926 81.377 C 130.701 85.402 125.519 90.025 121.274 90.879 C 119.558 91.224 117.834 91.842 117.442 92.253 C 116.509 93.233 115.785 105.286 116.352 110.418 C 116.865 115.065 118.74 118.723 120.608 118.723 C 121.319 118.723 123.031 116.989 124.412 114.87 C 126.625 111.474 127.021 111.219 127.755 112.719 C 128.458 114.16 128.203 115.088 126.095 118.755 C 121.753 126.308 117.213 127.053 113.615 120.804 C 111.163 116.543 110.083 110.157 110.147 100.301 L 110.199 92.327 L 105.186 92.327 L 104.46 99.751 C 104.06 103.834 102.935 115.341 101.96 125.322 L 100.187 143.47 L 97.507 143.803 C 96.034 143.986 94.656 143.664 94.446 143.086 Z M 122.618 83.378 C 127.056 80.859 129.687 74.09 127.603 70.55 C 125.722 67.355 122.096 70.924 119.944 78.089 C 117.878 84.969 118.31 85.824 122.618 83.378 Z M 37.242 137.744 C 35.361 137.129 35.394 135.947 37.343 134.176 C 39.796 131.946 40.934 127.074 43.136 109.374 L 45.188 92.877 L 58.384 92.579 L 71.581 92.28 L 71.236 98.628 C 70.34 115.121 62.779 130.508 52.749 136.247 C 48.971 138.409 41.483 139.132 37.242 137.744 Z M 24.813 125.753 C 22.185 121.62 20.267 117.356 19.001 112.83 C 17.178 106.316 15.51 94.871 16.133 93.158 C 16.571 91.955 40.817 92.131 41.257 93.34 C 41.721 94.617 38.062 123.3 37.005 126.671 C 35.79 130.544 34.401 131.848 31.451 131.886 C 29.039 131.917 28.298 131.232 24.813 125.753 Z M 151.641 121.007 C 149.994 118.209 149.748 116.983 149.748 111.55 C 149.748 99.822 152.575 94.233 160.582 90.126 C 166.307 87.191 168.267 84.703 169.252 79.12 C 169.89 75.499 169.841 74.394 168.936 72.047 C 168.345 70.517 167.179 68.974 166.344 68.618 C 164.88 67.994 161.636 69.905 159.317 72.758 C 157.756 74.678 156.25 72.26 157.271 69.475 C 158.761 65.415 162.814 62.668 167.343 62.649 C 171.044 62.634 171.947 63.035 173.635 65.447 C 176.71 69.843 176.75 73.326 173.968 94.769 C 172.611 105.222 171.456 115.754 171.401 118.173 C 171.302 122.448 171.229 122.583 168.805 122.928 C 167.034 123.18 166.08 122.745 165.512 121.426 C 164.769 119.7 164.556 119.733 162.496 121.895 C 160.982 123.485 159.211 124.222 156.907 124.222 C 154.042 124.222 153.248 123.738 151.641 121.007 Z M 162.912 114.386 C 165.191 110.101 166.12 106.116 166.964 96.999 L 167.397 92.323 L 163.591 95.166 C 159.016 98.583 157.073 101.456 156.539 105.591 C 154.895 118.3 158.318 123.023 162.912 114.386 Z M 130.107 122.389 C 129.165 120.791 129.818 117.884 133.142 108.874 C 141.239 86.925 146.511 72.083 146.511 71.236 C 146.511 70.738 143.888 70.33 140.683 70.33 C 134.881 70.33 134.855 70.318 134.855 67.549 L 134.855 64.769 L 143.759 65.075 C 152.397 65.372 152.668 65.453 152.866 67.82 C 152.997 69.389 151.017 75.869 147.32 85.968 C 138.795 109.256 136.798 115.03 136.798 116.392 C 136.798 117.209 138.758 117.623 142.625 117.623 C 148.41 117.623 148.453 117.644 148.453 120.373 L 148.453 123.123 L 139.496 123.123 C 134.569 123.123 130.344 122.793 130.107 122.389 Z M 16.614 83.253 C 17.242 76.281 20.463 65.931 23.79 60.2 C 29.746 49.939 36.514 45.576 45.268 46.357 C 48.234 46.621 50.839 47.141 51.057 47.512 C 51.276 47.883 50.459 49.878 49.241 51.945 C 47.469 54.955 46.732 57.656 45.541 65.492 C 44.724 70.875 43.612 78.125 43.072 81.603 L 42.089 87.927 L 16.194 87.927 Z M 46.137 87.103 C 46.133 86.649 47.059 79.856 48.196 72.006 C 50.649 55.076 51.622 52.732 56.2 52.732 C 58.944 52.732 59.502 53.236 62.952 58.826 C 67.035 65.439 70.392 75.486 71.126 83.282 L 71.564 87.927 L 58.854 87.927 C 51.864 87.927 46.141 87.556 46.137 87.103 Z"
            fill="#000000"
            stroke-width="12"/>
    </g>
</svg>
